-----BEGIN PGP PUBLIC KEY BLOCK-----

mDMEaGA63BYJKwYBBAHaRw8BAQdAo/yU+MutacFmmn0CEX495goNrBxR24235XLM
cvHYjfq0L0FudG9pbmUgZHUgSGFtZWwgPGR1aGFtZWxhbnRvaW5lMTk5NUBnbWFp
bC5jb20+iI4EExYKADYWIQRb6KP2yKXAHRBsCtggsaOQsWjTVgUCaGA63AIbAwQL
CQgHBBUKCQgFFgIDAQACHgUCF4AACgkQILGjkLFo01afgwEA/sLHqsj7ml2vyDoT
KDPE8n9a80ZOh14OfnlOe0cCZA8BAMEOOk7QFI69DIlV1nMiqcFCqQFoSzBU2LkI
R17p/j4NtDNBbnRvaW5lIGR1IEhhbWVsIDxhbnRvaW5lLmR1aGFtZWxAcGxhdGZv
cm1hdGljLmRldj6IjgQTFgoANhYhBFvoo/bIpcAdEGwK2CCxo5CxaNNWBQJpsCMx
AhsDBAsJCAcEFQoJCAUWAgMBAAIeAQIXgAAKCRAgsaOQsWjTVr/sAPwIBsG8g6ND
zoNRTX1wPKBvfZg1NP7tYCyM5sxQfrpuLAEA05AhG4xBILfhL/f0pqR5jXfxg6gz
T6WfeVeS6zeHZwe4OARoYDrcEgorBgEEAZdVAQUBAQdAQVmtih8AO3ryBQMR/22x
WHVKLjAbCiH2cMxNH+iy1RQDAQgHiHgEGBYKACAWIQRb6KP2yKXAHRBsCtggsaOQ
sWjTVgUCaGA63AIbDAAKCRAgsaOQsWjTVu8oAP9Bc+QY+9FikX3YvMgWAqiDlVOy
o0y6UIZGBMSQlF80wAD/d34LqtVIVe9oe5NO3xA75+6Ew8tGeAjUq/ovagr5dAU=
=JsVv
-----END PGP PUBLIC KEY BLOCK-----
-----BEGIN PGP PUBLIC KEY BLOCK-----

mDMEZAFttBYJKwYBBAHaRw8BAQdA9UUQNclFp0rIrgtQnNw6BgjDINkFPoVbuS4H
sQNEf+e0LEp1YW4gSm9zw6kgQXJib2xlZGEgPHNveWp1YW5hcmJvbEBnbWFpbC5j
b20+iJMEExYKADsWIQTdeS9Zc8beUsQyy9rHer+gDdvytwUCZAFttAIbAwULCQgH
AgIiAgYVCgkICwIEFgIDAQIeBwIXgAAKCRDHer+gDdvyt3PYAP9A8XbvZYT+N7k9
2xnRMfrAUep6TLfWbx9uf7k/hm/+KAEAmqUYV1afcuwU2xXE5I8m25VMnCEKFFEF
52tW2baWkQW4OARkAW20EgorBgEEAZdVAQUBAQdAtwscgbxby3vew2hn9F+KlVPL
vFBPjnvODcnsqlO2mXQDAQgHiHgEGBYKACAWIQTdeS9Zc8beUsQyy9rHer+gDdvy
twUCZAFttAIbDAAKCRDHer+gDdvytzxaAQDvYX4o1Y6R30bYwIXemGgbO8GlCkgk
5it7MjeSk8vUygEApE5zIi5OtP8TlPiMgu2MoJbIltqqDCKWTtHPIQRNIwk=
=IisY
-----END PGP PUBLIC KEY BLOCK-----
-----BEGIN PGP PUBLIC KEY BLOCK-----

mQINBGYFoj0BEACm4UKYcykICb5oxZQQxSZRYwzkSngpeFcrruHVHfg2jcQ+VmRV
C3NrbhSrBQuJ0pMx/zq/yZB6K4JS+EMf5GpaX2ZsVsj/MPoSKVHcyXR4clIulCxN
rUyKYS78awl3bE+dwf9U+IY2fMoMVLwNL8kT2Yr28dI2u47bOPRqxDTxJ8VkRMR2
4Nv8VbFn2kZVm4u/ZE4lVlAr82vuM8dOdo+RA6OTfnJRBtuwp8YmSLQnoE+BeR+i
LgbmqOFSqAsQ4z5tl6PlwUMQn7k/GiYfGGKzgpZ9eq265xu7u7f2cXk3SAnxf2Tm
v3JLsdLd3wbxGOSAd9Ciy+VNmhW06khd9JGriVyslapSNu0ZdH4RepPqjTEItHLE
dnUwlcmJGKnbE3n7Q6mTez2pMtNYNAeA4LK26qHkHqkgAlkgIZKG3SMlD9wc3FKf
SpMdEQw9RqAZivO0CoiFRC+VknRVFy4N/F0nrvC4uHDEomIueJswN2r0LWhMDmlV
j0CGfDQ1SDeU0QpVtuQ5wjpp3UumLtj+uzfU6Y01mrtxH2hNbXKWiYFlDSH17wra
zYGyEWDnz7owLbxEN1c7sQgHVTVgFzQs/zRjS27HE3bWK2O+vXWD+mceXMHUL0om
04V2TFig5GaGPr2GSD4eY5Em4G2FzmwPGhjB+nP8nHmsQLAuMUhIR47yNwARAQAB
tCptYXJjby1pcHBvbGl0byA8bWFyY29pcHBvbGl0bzU0QGdtYWlsLmNvbT6JAlcE
EwEIAEEWIQTMaPWjEG/0SDIuSO0n9eONWwohXwUCZgWiPQIbAwUJEswDAAULCQgH
AgIiAgYVCgkICwIEFgIDAQIeBwIXgAAKCRAn9eONWwohX7lMD/4yCMpJqxGKaSsc
5hDbr5ua0uQRnziFBUPz/RFF6RmSDDCZ+Guck2A+8d7WHh/bmXhz9sUIRp04oLpn
sJAkbbdNJaePmRxEOoi1Z1yUhLlfpq9ZB1Y8z9Hgsk4fzbBcpvyGrfpmuRx1B8F5
4QO02VGPp+i/Jek+PPCpyXSSFVVe41ROHeAFoAdAsk/Pn2K/xP8sFWf2yZJDxauE
NUP67aK7q84N4iC93ioVaW/tdVGdOKKwSCo1jxEnWqMCHe44/BMzDzjNzcGNFNNS
2Wp5x1Bzmsj4SDHjWpfgfNzOuWzbdH0H52KiQW5I/TDw/WnAMDAm/ECe1V0n/+ON
gmCMCf/iRmYlLWRf27aGK5OlH+cpF/fsuWe14QvSbLKgO6d3nZ3kJ6bdrkeI0+eM
snPVMtc9Sfo1Begl4XMOMLXoGA5Q0tZpCue+o7HfJ2hEtYQVL3G2yIgWwLcw//Zt
/N9sYOJAGvMi2GQubqTryBloskV/DAT8cH3ttokOWF/EZarWkJmtOMpGIT+tpnyt
YnpV/R6sAqT0whqxo4A4Me8ncFIhbviJNBdy/hi0qJxHvVDURGHaMFCcYGzzfjlH
/nXOGCfInzEmmaLUkyqoM+mcLOvWBacprlXpm8Vd+OprgljeBI6JyCZYnIJycNQq
U2drHjHrgFl2JEmvHwCzuP0Vqr/GxbkCDQRmBaI9ARAA4jotNS9OKK8tT3ORqpqE
Ns4j1MMHQW9tJ9K2M3rqLLsUx72MN3NIEzidEzGyr7HKdBQ88XC25TRqtKhljUFp
3m3sw7jauZcTCHF/vaW5Vkfix9qL5BDiqQ7T54o05nmCxXBWKDa64JFA0GcR5xZe
YORi/EujoeU2xWaXZQBuU0RLItraGJnIIUCmsPxrSde0EBTpjNJ0zEKqdUWwx2JD
5sxs2Ln1olJFA4hKCuGnYhjojQxapB7HKanmqMJD6mvQVCjUmw1FNaNDLfFq/hx9
yF2vTNZ1BzUvQfYBqKswnD6/Q+ButpjaDyGP8w2+NVWCQlPxVXiHcOBDNh8JSySM
ESHi5vltXujKZAkr+q67OZrKpa53Mtw0PAEuM5wl+Dv2Ut3Z3mWIa+8h8AO/SXnA
RXzzsM6M8sHMiF12IIzxAtfve8eINor+gEhB9LJdobOq+o8tu6la9UOotY+dJPL1
py6SuZBbOSpJRio7PwuDz478PbbfyD3HSiRcv9UWCUgpdfiPNLJz8NCCYwwM0CwN
lKOvc0pEBQxufHOMDxEWv7RxOdxWiODwLZrlyE6eLh5BaxM/AMwOWJH5ReGaAA0V
DRjXHRm+vOCXLENeH+ZlTqnKIHHmKDPJdybzllsxaFp02+c6sf7Gj9BPdA0rzJrd
prnboL8oBr8HJzvDw6m02kMAEQEAAYkCPAQYAQgAJhYhBMxo9aMQb/RIMi5I7Sf1
441bCiFfBQJmBaI9AhsMBQkSzAMAAAoJECf1441bCiFfXugP/1iYMqMM7MRifFe/
HIwhBmUGBOXvRrOdYEnoQOQM5CV+ro1mgVLr3alHo6xc5ZYwINq3AvfS0XTLG0z1
g7zQpictpK4mo2sTRujeJpf6TPgJ7aI9+fYDnfq+SmhDgKIlR20NUxLMgK8u2eBc
EF8gqqGBldHV6b6TbDBZGW6xAVGXe49NLd8Q1rHPCUVA4SsDF0Wgn9gaiarMqlmO
tcrsalTvGrbsDzyHY8p+OktYeJPCVy0iaiT5RTwkGjyhInSzH0Qyb91aYXKJdH74
c6BPFjoXeEM/n/pH3cu5h4x3m+8Z7X5l9/UrV9kBM5TxwinTwGUuQDLes0mjwspU
c3kgPGgPGzRp5+wTcRfiF00luEFUxRtBLCId6PKSH3ZhDjRA25M0Yp4qP81wgu6S
qlbB+goIZtbEAJeIxWNerMVeC1FobuFa9S6t9PAUlvX7mMlBAMDOv6czFkrl7rSj
yQw4lcYv23z/o42yFG+EcnEQ3l7K3j1qmkFDiEfopbQVBNpE69stjpO1sQV4fVYr
eu0agvd1+yKZrcoEo+npXyzXPckRsHchS6pbhck1vFtgKwXpPCjSC0e6IwrDgAGw
0smdXeIIwNoMVaY3oksWA8DdRdNCaHqYalW+8LytiOOcBvgFCMcUsr0NcLstWwyi
ZWf0a3VP6Gco5bmDPhvGoLEs9Vw5
=57kS
-----END PGP PUBLIC KEY BLOCK-----
-----BEGIN PGP PUBLIC KEY BLOCK-----

mQGNBGKD3OQBDAC3ESxNd7dHfM7Hl3sE7Xn2osS4UZkJtmXA7hdbfybzf164wCbL
cYECq0GrGfgdnKEMWNzr2S08KkUWQwJZd70Jt1voVpqWVXdtBH/KxGwifixMkTEy
lu0ePvJM7L5HNOIZP5njcAU03hKgIibYQW+SWj/G37yfdyNprN2uX8p4CUyJbnBc
YOZ2W1tUzNsddvTV03JlDmfR5kwHoi5sTCqvQWTzsIQn/vGHxMqa3XjabfSvim1A
ytE1J7VIiu7P9hW1prEfUVY5+ggswUCfJl4A4WcCwFLIaIdOreiakAix7Hn5AD4D
lyskTzDy6QRpzFVm6YyrKzUzggqa+bQ5/9aq8LdKVim/f/LmEuSQdwkEt0rOWhAX
YJQrnJT8IFLqmgnJEygGkwcdXOBGRERRB8Mes0rfrgYHYW0WqGI5fMxyL1Ti9w+0
AH6QFq1IoWZY8bzGk1bJe57lgJrshavpSc1ftKTqsFAoLYDsMF6lxkNyS7+OZMIx
U9hbvuJgdPj7/lUAEQEAAbQjUmFmYWVsR1NTIDxyYWZhZWwubnVudUBob3RtYWls
LmNvbT6JAdQEEwEKAD4CGwMFCwkIBwIGFQoJCAsCBBYCAwECHgECF4AWIQSJDAjb
hXkWL+4N+duL6rTfz1Ve9AUCZowKYQUJB8qUfQAKCRCL6rTfz1Ve9OI7C/9mQxcc
g/oZxn4QlxWaNjqrLLjDt5D64BMFWlqAIg+9OiABF3dAAYdkRLvQ4Wxq2xHauf2z
du1pbCdKxO4lhGDVbMjKgCvfjH21foORH/ZR/daOt9lc3ywFGg9WMN4Vlt9+cO4f
dENOMMNpDVPWiIZ0VPJZcFNXtHmBgT3CmKjVZQUDUerhp6qaRxkMqUdVnYfieUKX
lDdviMKQoVHmzaDlexgvsKyCX6NzjCBKsigOQeC+hqt3AdyN3IG2sBAVBrMGvqN2
MXfgebr1ZDJnC0Y0hA6zAeyzKrR5vrzB7oDQAl2Jze9e0hinjtcCGOo7+Xna6Dm2
GP2Gj04hNSk6JXARU03KZWnMryRqQCDNxfdHy9ShmPAD3PuH/g/VCQMeQsB1S1H+
m/XVp2I+G/fZj6L7iZpR5URbYQFSSL7UIVjyFTymU8e8PkkRqXDI0nboaZBVikbl
FmYAINtsVJLHY70lAZ+0BJCGs9QIETguxFtsofRw3pqnuy93FKV2/T2wJUa5AY0E
YoPc5AEMAN+Z6DX1O0fLkt0lq+N70gmO+AlFI9l4L2HKBiPCMMPCXP/iX/04zVzm
6n3rl5ypNo+Q4um6eGwL9UGrzUJSwcD0nsvK8U+SVyDpp8e3i4+ph2XRiC5Bkktf
gye2vTAgE9clqnDpQGnaQ689gOd9nPQAUqNXnibuZsnETusbu/+HQDqM4wdSxTGX
Q4PaqjmyATeUcTVwh8bzdBOLZ8O2eilFgNhY30cycxevI68SnLzPz7riXTQo0pKb
f6hvK5kn3nULn5l7b+QFtuVbffe9vo3J3OT8lEX9Cvd73y01fgDRXs5j1Zbg5OaO
MXqMthbndq+enlhkD4vyCF07LkuHBk8lMX1yUVysMx/iqN7YS/2ZEMkJt095Q/6D
cNigEUpTvgtPJYxHam1uXQb3Ellhap/YeCkkgOs2FOeytaIR8na/A7TjPwOM6v/t
ar+ENQDF1nChrqhlLin9j+kyiwkTypWJ0kmyU58fZGvlSh1JfjVNaMuM4f6xoFQF
b88Au4p8swARAQABiQG8BBgBCgAmAhsMFiEEiQwI24V5Fi/uDfnbi+q0389VXvQF
AmaMCowFCQfKlKgACgkQi+q0389VXvSQBQwAsMvjMThyU14b/Ba3zfC4fqtBd17l
RExTlyCpjJj7Kt8tiFSM1Yq0M30ndQtZY2+tpiX8iyjgWPYpcbNgm6T3jOFV1tgt
p2m7bYiGTqa7o0VQEcdu+52GqNmrLv7aLZGoCM8kNWaRGyi32433EWdz6b+1cfT8
H7lIrLKvBdwrOV5q1XMQLf2DDNLQUhLqGb6qE6EG9/Rw4e8uc10w3wz0xr3Le1+F
lrC1KFC0XaHoBCW0gNq7tK0gG+aaASIXg8qQS/cT3Tf00jq/M7j4Vl6QwOsOwZw1
hn/ydBQfK3Tv+Hxe060vWehIyc/nfnw9oo4AetNKQqieNFjfh7CHhAIaTVDisc13
0rQWJtTmloRBoXA0uwLc6dIvIWi1hL7KgEI55zSeXUdFIpwWjRcNxdiLQ46GagtV
Mj+1hz8EOU7J3vY04ZRHDyapCRYoRXd/N8MUnsZ/ySRdA/Sk57Ujn9UH3nFEhD6A
H9y08K6zB4JFN7saJiCj2Q7W2nXuEUhRVs2K
=L7AX
-----END PGP PUBLIC KEY BLOCK-----
-----BEGIN PGP PUBLIC KEY BLOCK-----

mQINBF222c0BEAC/wIiI7EYmA7yprNa/0en2leF+CrF09BlCItTHH5IgjSLGq2tI
Bi3hIhf7TitDlu6GphHlFjvhj6UDgdEmr0itcoOLRhtER6WlmMaXtS+im5fPSLWW
skZSAh1YC3iqOQCErkAnVFUWY5nUbWfxgv0pKrc5GTT2RkiD6ngor5YIAkRaYQ+n
niHsekUYOuLln0p4n/K0/iRw5NMok9Q2FwlEj7H0kCfDPuqsgfEoDXoVv8QSVIpB
1gdOQ7e2MeMAB6U5o0OjqzMxPUrIkDmgGIBvCgcCN33lMNO4DWlhr3vF90EhKvWP
Ly4kTa4Gctt9f5kICzb7AYZJG7+F8hrVHpbF0fXzTgZsO/BBf4ERTMKGfj7ZXq7e
GARTfDgzR9yxWfxfo47jUd8amVk/qj9O94lIPobEUeP7SKPy2jIRTx04HcdMDPAF
okzJf1cwCghc19mN+ro31rcnud0Za0EM7Yxq89GHvHiUEzxj2XWny3n583V4Lh6c
2bAm0tcqmJlLholeFo3qW/nBSCde0BjwfamKd4KB80tsF8Qu6OdahFT8ybaCA2ls
dcks9uAXXqwyTmXhwe22CHk/919Ubk0DFPozgj0AaDf+vQz+lKxDUuY0FaSEo3sP
nw7JmG1fdz2jAw0UvK4xGrYE8nTlF85mOBhV7zjwW57b9x07Og0zilqZhwARAQAB
tB1SaWNoYXJkIExhdSA8cmxhdUByZWRoYXQuY29tPokCOQQTAQIAIwUCX3X/5wIb
AwcLCQgHAwIBBhUIAgkKCwQWAgMBAh4BAheAAAoJEMQ87EXBerk8y0gQALZv85ID
eHIDsbf05A3q5G614MQzRuU3rXBlLpTEv6DJorQll3hhmvRU4aQzX2D3JTzOAb8W
su+cHUXJvU11rCIsAQN3L5yWEG11hld/oDG3j5S0sM+/3YvqKjluWhQpYvOrTQUR
oJqn5UvKNzZ68cWgQDJOS3XVw5SLstB3ctoa3me0sSkSVs7Gy9L2SJUnnc33GGEr
UJCo7u/0eD5+ihNnP4buga+xd8w4zqe9gEzh8BZMi+soAv2kNC4wlMbErJUh0Msq
LTEJKmbNsVeGX0gwjlJR0sPGbfNWlN4lw6xAljFeRjRJg59Z9gk5P5+UHabUZLFk
9U98dj/8tclmxoa9ceMW1VVOBcpVskhUpF7DK7j0ojjz9iRXXWIxkn5dgnAP58eK
+WZtSQ5lBbzyLFFlr5c51/FZoFurVACWymHNiyA3Xg5tsv2e7a31T1oPC0K9T3Zx
navSgnx0Gb0SRJM2W0kJwIjdX61iHN8yisnD4+DMHWGZmNgPN/tVhpSVKVKJC1do
WlDgaoi2agnRtgfI0G9Em1CN7yHBCRpWaVERAaP/+uBogAwWOZFNgQjwVtU6jZYz
oLgazKbQXDf859eJ6C6AwWxrBiMMsdLsuQoFTmAztZS3efbLXU0qO4NkQ5QpEMP/
9U6873G4QApdzEHojTyTt18ffmvZjkzpbj7WtB9SaWNoYXJkIExhdSA8cmljbGF1
QHVrLmlibS5jb20+iQJRBDABCAA7FiEEyC+jrhy+3Gvka5NgxDzsRcF6uTwFAmDR
t8QdHSBDaGFuZ2VkIGVtcGxveWVyIDIwMjAtMTAtMDEACgkQxDzsRcF6uTyfNA/+
IchjvyChF8f5CEIKvfT46yg3JrCl8sETf6cTR+ZY6ZleVgHD4/AM6yZXDg6B3gfj
UgZMpp1fu76N1zY+OQ6fPH9hgOGEsfKX//n5AJCCxhESXPlxQ7rvAkOLqUa8UsML
I8ueh19Rv+afEL4Z7l+mJF3HjGZAInVhbXg7OBp9x2Y1YhyGQe074bT1gX7UPdfT
PmmkT7cD92ec1uxJVSYbG4UzUZb46fZSUmgyRAlz3sTng2y7an9t/auzPNrzm+DC
SplupDqwu07MrfiKUnGfJs6C0tx9LGY6KQQKZR5yCVqp+bWhRuFd04e8gIX2qq34
vgU+GbulJoz63OJ3tu1igouoVnS7OwoYrEIiWZI3agzkb0VvpAlqVInOrXmZtvFn
V3wLW7RfXf6sO3sSjgVBGCunxNasbaTCtUk1jpiMQKZpg1LwSEcLEAXt5wIDZuWl
827/CHSEuLqJNkJsTRYXZe/hXvWm09OGSPQglcAeRH9fytWxBBMd82LRcsuYw/b6
dxw9qkwaLEZKN2vtvdJYu3BrS4PndU5Z2T530rdpign07ZpIDPvxElJ8KuFRgikN
FujKeAcMQ+PaZVWXBTEXsmqVJNPpLcun+Rb+ufpiwhehlqbnhdyqF40Rxivf2pk+
gy0bKrCl+AEYiqJ+dKpUs50PYApvQCoKq6eVjoEnsACJAk4EEwEKADgWIQTIL6Ou
HL7ca+Rrk2DEPOxFwXq5PAUCXbbZzQIbAwULCQgHAgYVCgkICwIEFgIDAQIeAQIX
gAAKCRDEPOxFwXq5PGi/D/4yqrdmfkGqJBDHXfE6wnbm2+rtpr0F587CFtKeC7P9
lJzDBXGvU22nf4pYB1c+UsLRvM+l3pQAfxJe8lg1fc6Phso1cb9WVquqHhkPDT+c
lgkGV8c0M9T2lRpDOLXmn7UfoqVq6aGCI7fqVf6mq0YCcprsAx6cPFd6G6jF6qEq
Maw7Yx+6gESRymI2FbifEHAEOWZHcS/H+itRN6OQG76n5W/PmVO8bsCqxTQlTqLS
ARX7bMFVI/J/F00DNjqI2sWzNx2FLsEbfG+NSrnGmun/Dz0M//TTwpAORTdQ5xGF
HcxNCsuNeRHVvbArP7NXIydMl5mBCs8W9fAZkNVchiVVgMovn+APA0/zhCjw/+I6
EwGnPtOYzENcriKPF/5ZTrv/moGVWktfdgTO8Ygbx2Z4953U0JMAQc88CyY1Rnw7
5S/tjmT+hwlGMb+YKiwq9+P3Zo5+9dPHz+aL4M5gskZDBP2Iu+c0ixgukoKdYf8d
mje7UsuF2RvW0y0Z/wIhNSo6/N/hYr6i5cMoDeZ6zMVZZEyFPx/JnvAX6B7t+7Br
MNFRtjvG9TNt5P4BkoBy0fL5Admid/oWlDLz6posj5ayfjb4ihB91BI1ORaqG8oL
AUC6C1vb8dmvCPGIyM0pmJnALc5/glnDNqyOVRrYAQXowNrlVPdbX3dYbZ0ooGAe
wbQhUmljaGFyZCBMYXUgPHJpY2hhcmQubGF1QGlibS5jb20+iQJUBBMBCgA+AhsD
BQsJCAcCAiICBhUKCQgLAgQWAgMBAh4HAheAFiEEyC+jrhy+3Gvka5NgxDzsRcF6
uTwFAmhcK9QCGQEACgkQxDzsRcF6uTzocw/9HMMhhddNoJeqOAFnKSKcKm5uw1cc
gTezizurj6W7GGKmJAvzLHz9gD+xz3TjAe+E4ZAkQNF2x0OmuEiHN1ST3lqtmF1J
fz3C1/WvtTTm03h6t5NQRtBzCLhXW7mH6Qbof8yI3pozM9t/mhmvkkr7FjJxC8cO
A8VbNXIVChZrRBrQZXfr06PkjDg7qEzSKZgDA10oSBJexZksf8g1L0D7NuEUu3dL
gwrL2+FlT3RCmEEhEei//V4gTbwA2DXjgro556vVv1SlgJWOsaD3228XT05jSta7
jKswMyhS/U+/e7rt3BWhm/sxdHpZXOnQ0tqB8/veu4aI79DFTP//oDI45xwXXFSw
ZwF9GEvOlX1q5ZUA4eS2mxY1hHrj7Lo9VZwW1cZou5msqKXpe6+CLcSjPbIPT51V
VFTbmx9ps+0sxCa2cbNu/DvOlxAmZj2c9ceW4fsAiS4m8K4Z0nM8yy+t+2JHh8d4
/GpkLMMWdYGq3xTxRS4mCekEZ28LWvwjo9/X06UvSGSu+Z47VxmR7oVeSIt8gPw0
73gAYz4gb+cXTfAm+LOk5i4j564Ixqh5pIkjwasMQS5vlswWETq1hmDsCDCNMgLI
bbQYlUQgCFClPl+i4TXfWc7b0K3AUSjeThG4ZpsjDhhAl/uD6ykNMugZt66XEJoD
OvzI76MwP0rwuX25Ag0EXbbZzQEQAL9YA50WXd+iCK2rTlDk4Pv8piGkBu92CJ8Z
lbP37AriS0xKYm78sWFqRwflFoerUwdPbC7PV5FuslRC3Y7T2T7uJOU08YEue5nC
XgLJxnbtpjCKoLlgDWgLgLcmtfQnQrZkIZmYQ6zlTFHrJZ+Mg29ku/JeZ7HHB3EP
dQoFd0EIJJJy5IUhJA10xnjND3RrSaApS0Q7swui8LXNOtLa/tpGXF/0OA6OjIXB
xuT8lgTTUtk6zz+ESw0BgI+GnYZmL65m/PSfTVd79PujWhP3e/OmDti8JxWVsvjh
tbmS2ZNuQEKAvGJS/ZoMrap2cuA7OrDM0/Ndoq9dft5yhWZbkwBNevPwXSo9ZVgt
K+mZyVrQPKTfPusjF27HwPw1xrSvj1h1b1bAlg19FJTTAv5GqOePlnbgUlPvJYt9
R3gipBy2ZIwWV9dfRZe848dz3dReD/+q1fNkQJJC76pv7T0CboEMHvKryKfsKNp6
THyHWRE472kkQZ7qF2ssxu3d+JHFvn+KEAmIbR+UfS5hnENVallHXRU4gtEAae8c
BlXNnP8swzO6BkgGqsERtvATTdb8xjRSUIcqPxv7EIRG57lnEHuGr6N1Xa6FAxTm
hOy27AlmnbQyaJmpDMe5s5XHApUbRA4Mq1qSbcOFNml3zUVKnCXaXY0B6MM5F3RP
hRnx9LHRABEBAAGJAjYEGAEKACAWIQTIL6OuHL7ca+Rrk2DEPOxFwXq5PAUCXbbZ
zQIbDAAKCRDEPOxFwXq5PLlHD/9kI4bENYzm/IE1EK0zp48LZCsaeZGZ/hyW0qJ9
lnLyXKRmilHAeLmD+tRXEnCOzmFwqftJpQJditx79uoyUiTiOA/yexia4/hrItZ8
+E7lXQmvA6vEFRMNZ+5+TtlOMMS8BL1kdyJIC589nDZorA8l8401e9nAGVtowhk/
jWpF3tuRfb7sVKvvWpzee/EJ1ntmUXi8FrhflMhBJafQaRdLFnrGTjr3iwh05TDE
AbpwzTfZQkj6YljJAFz+QwNZV9mK9hGzq1ExGo3B7EXdY7qelQIYTEByPXkRXa9j
tUYJZOKX12hyCYfONIFFcZcNryxbF+X7UtCnTrgyK8LZ3L1t2xKOxumvoeLnfOqX
Wdizm25eu1vaBKSmdYwwC9z9DYZqImYtOksLQoolqEh0LcqJBKJuItMKmDsBW5EB
5IFinbpmzxa2X4rvX7qNNQ46ky0sJzLW+bollsrn40S021IUyXq/FsisJTyFz7Nd
eTvEgr8uvOZJf++r9oEZw48siZNqjvPsejQjacu9UyXM0dCnJSaOm8OnZy8TpRB/
ibYKg149T1Y2+JrwHaXdKiM0U4k3a9X+TjA8BCV0+m3eY97cuFqXItaEGg/3FJyf
9l5FS1bmjbondfTk3+rBsZ/tzDds+Jw2ir2mncO1jXgVls8xieBGoRWvH1N7nSSM
NBG2Fw==
=Cg9A
-----END PGP PUBLIC KEY BLOCK-----
-----BEGIN PGP PUBLIC KEY BLOCK-----

mQINBFltAggBEADHYmcgBOWwJTVRJCnqEpC8IvOber468ikSgNolQHFbyUkJy/kd
cx+byBnvqs+s050N6EocIkmPvaa+ptNYf21uDnGKPyFqPMKn68iAXwVDasUK1SST
lQSixf4qyHjcD7oyDm+1behw0J+KEnjLj941/Q4TOTu93ntRtgBKX0urXTvGjuxk
iHyMiPSiisuV4S0cpi5XsPOPrCvRFrx6xUGRAPf5+MVJkbS5AknmE/aFaMa7yfXe
hZEYIwJzHFgYYRTZH4RB+a6fO3VqVdEEO2oHtR34c4bEn28rtgcrJv/3rTa1yXZx
Wf/qGHthRUXY+eHwV+Ih3zOxlQ+nGBK5sarqpOLF2iuVYbmtJeYo6b0LQRVxNEOo
kmxEOJEpkKJfq1nWRd3hY80KRnNCwCbGjM5i2s8IbyDtvmyVCZAtpBkQOpL24Uej
O15EaqJUMLbAwbrj3vNZZBRcWC4/MWL8seYYn05cIRKp9tf8+JsJFpq1VYcgtMjJ
bu11+B/lhuNwDow+iBETfHgwNl61B9/2AlyMo2qGnnJ9Q/fBxJDV+F/cSun/zyr5
ks5wIuzY8fDYzmqaYROgZObGDwqbEON5wl/iQKFSMfLB138AP1TY7yDLueuuohpL
CxEiVntr6+d7FIWIDfJS7FLQJvC6riUfp9TWXjnqPjIQPeraGNlqKSUIeQARAQAB
tCJSdXkgQWRvcm5vIDxydXlhZG9ybm9AaG90bWFpbC5jb20+iQI5BBMBCAAjBQJZ
bQIIAhsDBwsJCAcDAgEGFQgCCQoLBBYCAwECHgECF4AACgkQl7AUGb2S+AqKBw//
aQJ7OXWKXIiIr45ojfTJ7IaFbhaRE3awRyzrnnaGmZSiv4RN6Uzbx7FrzOPVKr/S
zelUVYlRt+umZCIcB3fv0bOqa32GXHNN6mVPQL1OWFPfS6NqV9tEpE3bdGmffYck
1r3Hst/kL5OeTp6VV7YP1bMy1kvoGNzOWKnZx1sV5FKOVWmJ05mG6QGj+rFOEE5C
/mQbs6x8/aoIVXMNdNJMGPcA/+lPKaz1vk2yIt1r5YTtTlzz0IihltYUihuoi22G
ViwSOqjtK6c6HhfeUOfz53rZKjgtcmQNFlypVJLCb2tUZQSTauOiaY25Qs3jkvTX
Hi+QqIWH3slDBtF/CsppDFb02jSFyHYbNvWnlOPHAcjYHwMGPXdNJCVDB9a8XQHU
lYJQFvy1uDefycWYZk9zveaeHEiB/zHX5q16yT2jQxpt1oPjZzVU/fmPtIw5vHmn
HMG1lO6A22mKXArmH+RwLrSIYIT9VYpY5nkhKikCPe4mAL3jQmkObAJh6q8+cVGG
8+CjEQXMYQ/6ui8+2vqUNfakzOCdzUDc+pTIm93kGXkMaUObS94ocMxqBZgFpiGS
ix1oxF9ggAzIySu+FEflxzyNBqXyCg/CwQl5hBkWhTJ8cdBWCCbHKZvDwgF0otSH
H5xJnvc4OKF46CCrXezT9tn3ZnE7/eZse9f0gSKteXO5Ag0EWW0CCAEQAOjS4fWh
Z6dmAs4suTyf26i+rpDiL8SRoR2uxH4G2fepxFWHPPsiYEdGyXFeY87I80la9bJ1
7LjYqdTscNq1jQPfkeV6wd+XOm8oDXHszvuZMLPApc7BBOEcMpvG4X8iABVn4/Aq
YqOAHyztph9Fai1TefqgBxlLJNGXUDCruqJxIQpAlEPgV/kSmvTen4ieiaECWupa
nox6RY/012HhpkwNtVBuVQwTd33/FHCysZZvv92rZyFqIfkLP5am1xUmbShsmmaX
0VOUjjyrMaCHrdwAnG09qDRRltKQiSjBWv4qH2EZl6E7KPQQdIIeUBCKU2tSQLw4
faQj5Mgjnbt57XYA8UALuQQxg5rIKrgqg9602Sp+JlP1xbNe+RgIRzK5foR10rAT
oDYWsDLDtFEM08zNWAsgndt1BbtFOS38oiLYFpscFAvKke8Z6SG68bhqvLK+jh+S
cBrCTc2VCUA+MkGgpWbUjvEYrBgjpChmj+CHThOGRE1PPNz7lpHFdgFkIsDDSyrW
FaJuqS4/oWz1zpivKDim8AATiRxhCiVDd+l9bR9YKHHTaBcZw8FJT2YUsH6/dTKZ
eOjFaNH6nY/A0S4QAXI2TPIl7rTwCHm9+GxqJtTPIqHfvoZ2hfL3N3LguZxjuEEp
48mDr+Pvib2HdoTYc6KeqBJ6xl+hCs2vwE2FABEBAAGJAh8EGAEIAAkFAlltAggC
GwwACgkQl7AUGb2S+AoKVBAAj8SuwYHG3c0cgcgKxV6WcYLyPuZywsUZA02CA70B
gSZi6lyrhPb2akXq3Mrh0NX0GxfgDHokggaMuXZtuluj/9FhWCqlvcG4sb3gujnX
unzzYBZ8KtgPDLFV4zAVdHBsQnSFKFeemVvKYD1vlkGPkHoO8JHl9gZz/mei0OER
cyYbyw4ufUEgSEGaKf1BfHveXeM5F2atthtjYvhsq5RsrUB9QazG/UKu0fMCof/6
3WkwlJoi00SNtMbwqFkhnjxZkZ9S+flLj4TXciGuopNkzZwnUtBjTqrSjgedTKpH
8S5vPiqBORR8hcb3lKKHSIyIBDHkf0Tk5sDNjobmRzp0LQ7hKh3HgCfNMLOwffTO
w8ZMI/B14VHnsrzrUIms4Gs8lohT4FdbC+SxW9bdN8ifGPVojD6IsxQXpgTXGddT
ZJDuFrNZJsrPguinZSzXBIA1sqLHf4jc6iH/qkdOr3jmDWiFtXJD5mH8hy+a2NZ9
VNsIyghvEedwy61grPghFDrkJKN/nmbTsoS5zVIkBwCtvdY7/8cXdY4QFXWREWAu
zvT091yoDiEFqFc0HUTEHzJEHwDiBNaRvWvsph3/wejwrPz6IZ8jh/dvhTH1ueF7
n+uWqOu9Yo24d3z8jRopp7dTponoPYTQKmH8uzNeqvO3DFxm7fJ7TSrXaYJndOQ3
AI4=
=Sf/w
-----END PGP PUBLIC KEY BLOCK-----
-----BEGIN PGP PUBLIC KEY BLOCK-----

mDMEakIjcxYJKwYBBAHaRw8BAQdAYRFWvBCAd9dDjKTePuAvvzAWxhvojAXco0m4
2AMh/MC0H1N0ZXdhcnQgWCBBZGRpc29uIDxzeGFAaWJtLmNvbT6ImQQTFgoAQRYh
BGVfO1wfs/qNGgymveSn0jK5NtL9BQJqQiNzAhsDBQkDwmcABQsJCAcCAiICBhUK
CQgLAgQWAgMBAh4HAheAAAoJEOSn0jK5NtL9FOEBAMpIjknm4fnEQvTmIlzy0kDu
VplF4HR78+lBef2i4590AP9i82wtP4pH1/vynoSBMkCauFIPmF1c9MYLFF0f53zq
Arg4BGpCI3MSCisGAQQBl1UBBQEBB0AVa1WJ4P8ir/M7NaCGrX7PDs0QU9qzpzme
a5TZ44b/YgMBCAeIfgQYFgoAJhYhBGVfO1wfs/qNGgymveSn0jK5NtL9BQJqQiNz
AhsMBQkDwmcAAAoJEOSn0jK5NtL9EzYA/Arr4hbKLaU6OUjAVbH7HGLEl0HSvxE8
5lEgWfuNbqOtAQCF9UT0wQEfiIj2R358Ce62zV43w2yaD8Xu0M/S+hz8AQ==
=DcLq
-----END PGP PUBLIC KEY BLOCK-----
-----BEGIN PGP PUBLIC KEY BLOCK-----
Comment: A363 A499 291C BBC9 40DD  62E4 1F10 027A F002 F8B0
Comment: ulises Gascon <ulisesgascongonzalez@gmail.com>

xsFNBF0VqLoBEACiPJYKX/UT5OFnucsBQqSmFNPsRD6JaClRqNe8wQfOZKFNLyat
jtNj2Bvuq2wDTdKSiwcT3PWtPCEVEQ5i4MMzwmnflAV4KTtj8mLCGTR3ighnf9kF
hBdX+G4I3lQ2rIAc7ie+sI67zFmsAC7wFTw06DrB18vxl5uX7H5UqDXLsOQKE3+D
Q2SsygI+JsCanaZ+kk6pxgflNDlWj5uRIPe82Cwxg0gS0aQKX5m//diavfhlPmuo
YaQioe8/b6Bo9re7opWhtEFfYyGUxaRxVTLoMRwWcacspwqHcGe+rp88YmLMUXDh
PLmgGw8aAsf+b6Wcj12zPusny1sJoG7zwm37a98blyCoYFzx/xTG6gq/RLud/xdU
OOOhPGMH9wQK9ngVYG3Wr+LWU0ABrUBayY1wE3QBj7wYkoK6BEYknzkzm7y4tO2j
rv/9dxV8kt8zUEDwUq01Uj3TDe3YAbbYhXTVIXFwVarCM4AmdIrvKbJZz0JWCIA9
6M3NVyIJHqY2KYsm/YWsWMDqieLQci5M78o3wSdr4vsbvTRRGnmpEXw5cU16qY+/
npWm3R2H4o3IV9qRrrcYTgMdS6QohCV3qBeTRCdy7n3YB6X78ITIo/I9ogGG2nrs
i+mj0R6F39Y6Y/KQzDM1ECWjsk4pxdK71JGXWZWersmI8rymbtd/WT+UKwARAQAB
zS51bGlzZXMgR2FzY29uIDx1bGlzZXNnYXNjb25nb256YWxlekBnbWFpbC5jb20+
wsGUBBMBCAA+AhsDBQsJCAcCBhUKCQgLAgQWAgMBAh4BAheAFiEEo2OkmSkcu8lA
3WLkHxACevAC+LAFAmg9l54FCRDLiWQACgkQHxACevAC+LAE/g/7BmvYINuaFeQX
HjGRXVfkcXojrNKF5/co5XpvxaNl50UOrq+tInUg23/Q2ES76VMgONUIgIUqP71d
/09D/dehFnEeHCJhflCMjAbuZPTovjyfTPPwqKQUMLl+P4z7QAq4HKiuqP6hQW0r
IDsRsiODmDGMXgxA3O8tIphUmgQJi1GhiZXRZh8kNAo3d4pbkhoBXXXlgm+vJVu6
hcf2KCjciNrsqw+V9oNq8LyZytpKBdYprph6eCvaiGlGUk6PMzM+6tNBPbYJPt0v
yVQTGvfZrHe1auEjbh/oFColO/UgHfyAKe3yc+AnKuUWyLei+imz0fTio7Oj5d5C
5HTUQCaWTwEM0sODb05zI9EHjkpzRHyTwEuZM9gO+by5M9M8pxJ60wrUrftOgDMe
Km8+lIXmz6mYgfoOFHAzozwQDjfSCT1Fq30pWcCb3UiBb/zYV/N1CTqjnoEmHXiB
5dSrEzNDBmSIVvJpbY1sokOfxD8PNi0kcvNiZnxZg+ogECjPKtPx5VbEr0FYZEW7
QddAM163jfxmnLdYdtst9CxSqB6uMiz9F1ybMp8H4QE4wbmdGziqqebRV0m4EOiJ
rJWmJnWFzaScG1dGU+Ez3ICL3Q4JHfHiQi8tu6rRUa7nCBtA28h43H+uIoHqapOZ
Ow/ZPZtFApgGgnLyN6VT38mTgIuRq5bCwZQEEwEIAD4CGwMFCwkIBwIGFQoJCAsC
BBYCAwECHgECF4AWIQSjY6SZKRy7yUDdYuQfEAJ68AL4sAUCZHme/QUJCyZdQwAK
CRAfEAJ68AL4sFb+EACOc8YAcl6I3uGnRAhiu0F4tUI+ls0W+1FgMTZItkCH7Yg5
BLsu5arxs/Jn5YtEuV2Q2RipC2RJtNf/MKtJ94ubrljZQ3Ha3UApwq4qojiIm4mM
BlK+gKnewX76axyauXU+WC0cmpTTAhTYPpFFNG80J3aWIJa6gbuMvqnfvuA3Spwx
/SOsmUfnpKVFc11Tf1pE+1KcvvoKlAN2Xx/xNGT6GTsgxNWNCFpDVomSV5tnNd6g
HT1/k6nnefrC11NqzqSwy6DLNjijFZ0jn6tJFZThg2r2RQC5RZvXoM448+aeBN4k
zr3D16ojbXvCMpqHuU2PkZUgLjw7wVSaUbe1xUv5OmseprV+4R7t6FRIcc2yfRA9
LUdh44bmdGBJ1yxiP+eFay+NqNiK7LYo3Z/Rbcdc/KLttR6wB6l4BLZ31VP0Dm7J
Sk5VK9LlsBleifYkldI14e4GkA3qR9C23YLyiAEeUi+bd/yW1wirCFxoplx0pwCr
Hi+Gr5EgLWDia/ODfQh3ZJfRI37efaMmRqjN4FyGvQaIyqCu9/Qv9MNE9JZSw93m
9/2kK84lH+LyCoqDmFN1WlRs+FSc7PpR401bmthtruj1zDmvwxZOB/xmSdPE2R6R
3JO9S0DqvVuNhbv4sntegLXY9tNJzfBKFkcPm84WJkOg7TzYkOE5eyLN4aG7mMLB
lAQTAQgAPgIbAwULCQgHAgYVCgkICwIEFgIDAQIeAQIXgBYhBKNjpJkpHLvJQN1i
5B8QAnrwAviwBQJgthu8BQkHYtoCAAoJEB8QAnrwAviw9SsP/0VnbVs2BDS9BzzR
8mjF7xcGGXgUJosusaDRmNHfGBgnH0SKH8TOql295TyGwzJyI4yUf/snq5YL6tUf
5rPDFf+YqIfWkIJZ0lqxGzDqFXxV0Q1IxrxMaLDKZ0sFsV2fxXFRhpuvzGWkn7Gb
e0EjWcHlI1a3gvdDpXV0HiH0ZwD1VAq57mooCr2UQH5A5IKgd5Kzy7z6gxBeNw5w
q/gnxwkqON7WpAg4CXlEldL+xpS6sLTfB4apPCOOfjYL3dQTvatKZswm5UdYTgk/
GO6Zqky2PZzRuXnoJ2vEDNTjNKtH33hRGLBrQDfYeAsrqQClrwJTK7cN40CC7Dh5
Z23qcyuRo5SZZP6jC8VLf5+svFv+PQUZmZ+vojp8XzdGuXxCa7eeToHJOclgyA41
Mf0LJmJuaMT/3V1FHl26awrjB4RLBnDo0ULtAMFLhP29suc88BEO1HuDlV2SoJvx
muLyPdyA+i0r5zHxROwctQygHBaHVFX8ZSwG5+ZH7Daz08/tHk9J8mt3tR4jaBV8
rn8RXaqg5lNcnXL28YSe3f7vsWzkODPEufR1dx4tvdCKM/Qpc4KUV9UIooX/QAeD
U0URc+9x09CU7Ue7rh87v+a2riG3s9fNRGK5m/I8N/wbNBorf7J7TV5yNkDXs40A
d0k7PmZYMKHxiosj1yWelPRQjokvwsGUBBMBCAA+FiEEo2OkmSkcu8lA3WLkHxAC
evAC+LAFAl0VqLoCGwMFCQPCZwAFCwkIBwIGFQoJCAsCBBYCAwECHgECF4AACgkQ
HxACevAC+LDNmg//aDq4im2VJLm+3wY0DNYYnkyBcRupgqkFUPQD+nhbKLvCWeLt
rNZmi20ODZYNfhZqhvyfkoaq6NBCPSagVhU/2H/n/aLTM+y4VfYbtOFjWA8JrUyB
wsPgIMxNoDqe1pZNAgFdly6/wS9OUbg4HyEhvTU6LzMbXHZ6ZZDfcgMMwPV3+/sw
ge4gmhTNkAF+jeiwM097Q2zLctAeH5kxXWmhUex4oWW/mP+Z2KTp7yKc1Fg3fy21
zQ4CCyDE8lWszC+caxL6QgwRcmO5FGKGvkYTGkkGWFOa6Sfm8rJHI5XjPzXtq/+E
yUrrvV3fxdDBJYsqM5HZt0uyaB7NTU7a4VGG6aIqjlaujZSXmHs0LZWFn5SpVmwc
Q2/H7lK+lWzczOMMTmpQPiqPeRu0WIGZnrc2d8gVUTVKJOClCfQTFeBPSwwA1qFo
PbZ4dNXg/TcAWEIdtwKPVq440hH10ZyYdW2POEw1tMthy/58mpxc0+W6rixpgT+D
SEPmBdbgk4/XZOYk6sCJnp7L7CBBRXs36DTELZMzrlvTjR3weR9D32/G43Us6Se5
yNdjKrkBsmtHYrSvwtokXpCO4tu3hVsJQ9juzsx9Dsf1WTV82VDT592K4HSh5APp
1KJ2Z5gELlqqOOef9QRIK9EEgN15oSjXEkIRJkq2m7LHMingmvm+ST3qIxDOwU0E
aHptGwEQAKvzjhzR8jBL5Ey1CsD2kStMhyNMEGL+5m15Vzch06jmttzJX2xMDFLy
/Vm3vdM1YnM+gQheRZpzRbYBRtJja27CBu/YJP0/PvuIW940Lvp+MGuWdg9VJ7Hq
LjT1GQSJ4SgrkC+p7wUMtW59SeCditzRX5SIYsMryds/T8HYH8n3YyuOn0z5VjKG
wKww77mUJp6QA9CNtNxeiELJXovg0uYp/kPfAOVck8WtCHXKFm8tZ/469/PtnT3s
jFK3/nya1zBUi2OlQhhpQwRgk+tiSKWbnQEmSIh7v5ZRfYph3pdpnYWf7eHLzF+k
ZLK3kHf0S9L0QR/xraCRvViQIeVyyf3Q5sXggfxtHIF9mXPdXkMPonT8T8Bp0IGS
qFVKwvY8osQ945/WWEE06pmX6X0buE6tsnVZVHNdH76soFh3MKlg+hlxDTivhtk5
uIj8S0BG7Z0YxkVM4dobUGsum5Mbkl52Zq/+RHkFGPUvp0BL3Xw0BgOk1uj5NVOQ
S/VVN4FDkjq8iPb97JumsbxbPD3maCcM7Z8BZE1HJl0mUsqSblLLy+cARWNlWSfr
jMN2OUxhF+6a5AfndJv1PndAlGbpEd04UWaODbZ+D29DocmNKKVOuCNf0bOWZmir
oBQFzHs1CorUjg2CSZWkjoC/P1BGwWoygsYGy1QLXe2/knxCTOgVABEBAAHCw7IE
GAEKACYWIQSjY6SZKRy7yUDdYuQfEAJ68AL4sAUCaHptGwIbAgUJA8JnAAJACRAf
EAJ68AL4sMF0IAQZAQoAHRYhBMKyXZtCctspVluofzx4JPOaiVdYBQJoem0bAAoJ
EDx4JPOaiVdYgWMP/i2TATu3s+8yL74Q2W7H+85QrC3nGGN8FVeDskXwbu/fdmTF
op/6A2nPSP04f3x+OoIY+J/d1KGdk0HGEmf8DAVFJOJhc1jQ9gUteHLGfjwHXqp4
zh8tszs/HZ2zwvgO3fVN6NlhhMX5A4sH0Obzxih/KhkwlRcBbXYYvuT6WpaM1S7B
o9jthsrY2rL0lVaHL4o3dCCRVR5FKdy2mYNlgcsEyWDmGa8Ss2CqCTaIrxNxfZS3
eASxDoV380uiR2i/KV9BLtElz/YAXShmQJ8CYmFYgzCDGlTfZBoQonRnm5d1g93H
ONB7n9Vta6pBLDvDdEJiB/Oy1G8LSowW5juQB5bLf6PZksoYmbhjcIwX+gpnklZr
XxOTYe0S01y8a5lD9wx0L+WiKinwETRnn5XoMMrx9c1nfOqixkPAKy/nwnoOYSPY
wLTY1GXT87taZfc3BRGkmRxcrv3sU4qrzHab8jJ0Oax53vvcHI9qmdcRBDtb8X8h
7uXHZTu+bVRBtiFO6HhHEhY5squGzNP0YphZSdL7dXj+rBZ611MA0dmBwp27dwlA
V26KEF8DWp780akC7lOb1g83Yag4lEofCduWSHMeaLRckD7HwDjOecLXALfIJNSS
hPWPr5WP9kNnBjrnzU48tCxfnx8eJUMsy673S/8DStTyKH1mk2BBIbQ6kYzYuDkP
/j7dtChcatXNpjtV0IDctbq2tPWb67cPpTEBTaiAjoC1zFYstSblQU1h9SDFMyMU
utKlTfuqlmbiPHmSyaZyvaSVZlx1Yx8yA96Lq79ATd+CnYl8CWQDaQQ4E+i4psJp
rSn7XgnF+RBhujZiP/jcRuTwJ1RZm2v4pNtBmAaW5ZXPyR4fKZLFsW22FJDNzLtZ
cBBz8HPD3IGH0spUaf5PalYoNpBgh6euCWP8W0fCKyIPy6bIL5ycHuo3ErWzIHLe
kO9gGeaSN/t1VLgdE16Gaozu8Oypx2u0c9fhR7aqYTOxPfcrekuBEevHAKxOe1bI
Eqcgqdxht3bXFvfeqx6kvmn8Y9EhGjA8W/PWraVoCrKVdHXVe47l4i/1QZU3UxnE
eAj97ArW6H/Os1cjK9K77xzCpAz8FMT7AaPQq3uReUaDqoNIMTO+tCFB2dYQYeX8
YGgILe40bMpCnvY6zxC7UvlO+YxhZSQkF80Ytk/2eHuoLeEiM9IW/0+zxjP6SNmn
fhlkLevudlFFxoYlg5uWH6BIKLSUF1gCRIFKj3T1OnMrDlEAkNYrA3WATxHWEYAZ
NsZ4wS4I0oPY2bZ8ScS+2qwmcrUf4Zoq/praBJY9GYslAh29MmXmvSMuVt0SlYYW
KdMepn86/V0vJYpLKmNHrhToycaaVIN3p69Ap5mIztWLzsFNBF0VqLoBEAC/lPmx
QvfX2S520XOnOD0GnvqnKFUvICc+hfU9vW7o7Dy9ZdGFLRgmkrZbXCNowwPlGI66
VSOUfwueEvmJh5BQRXIv7gkvLhC7yO7OpyqAiLVrux2K69b7Jw/y91FZZZyaOyH8
kXdVNO7qAQ4aOTTln+DbIXa2WW1fljUktbFhSzjK3CRtVL7NUgHrFePGfETZimII
U4ZxjtX52NLQpyoh56WoGpW9+oXe2wEGYYYcHJszKD9iZyNCpSULT7pRNFwZQ3yQ
XNptOotYCw0L8gAmSwJ6SUge+MdLk1BGpXEji7rEvUxj99ymh3sTWqczdKAgYWtw
iis0KDpLrCtDohrc0JJxc2D2cI1FbcF+b4GA1+KGUAR9yd3+EC5yXLYPU0d3BN5a
XjCaXCr/vWLS4/LcXBAIjzGF1Jdr1a5uQBD7JBv/4JxLCd9r9aqfU+pSUgM0+4oB
1Pxqo+0fm7m42ALve9c+t5Yq7q9B/eHSx6sacfq7DD+Eo6NuxIZF9prl8b83uPE/
Yr0INE+Jm/DPLO9FfQYuuLZsyb3RcQ8RaArVdWMteYBke2tbAxlaWK2X+qvDqjsb
RNzjQKZEM+ib8uWcLxQQIF8g/6OAY6JXPNJrYTMyAkRsy8regIyZcCs9KVw6+jAn
HOXAyFURqpyDallSGd2sUFURidTqgrZIVBJ6yQARAQABwsOyBBgBCAAmAhsuFiEE
o2OkmSkcu8lA3WLkHxACevAC+LAFAmR5nv0FCQsmXUMCQAkQHxACevAC+LDBdCAE
GQEIAB0WIQSmAjUw/FNGH+yR+ZwEzT8v3geVeAUCXRWougAKCRAEzT8v3geVeFHE
EACsKQ79VNKKCjh7tcREWAIz1R/2Y6WQxBxA94swo0TxrNRKUgRdHCqQ9+hI0erf
amB4Wr3+6/qBdm93qTj8xZ9P+9EyKIEBpK1v7X0XDl21XpYjtvBIs5AcQYnPUrs/
ZpGb5yXTY1vI5cJg27aPwkeqEBpnFIz2JsgPQVnDLk0ltU/1pGtObIWH4JkRl6xY
FFuGEtxdF+0XBeaOFvL5e8Ds1bLr+wRXCYa0b1o0US8t8uqWwQ/Kg4fSfT86Gjkf
U9NtNe2LUjoKRZk4miWbC5ZvcCmS8U3/qN3+AFG5URRq86fQSSWvEqPQqmdg8E9t
Ny6KYXBCHU75hlw9zPasdc7vw3UUIqCpkohOIzdLArt+sMVklTKlhmNjCkbpguBK
/Ef7K12JyVHnUUhyxm03sKKLALn5qBlkwlXqSLgCKPYSYSFhV9uX4ZezStceV4we
x1mocU0EJZXzbhQiPhaIQFFXyIpubvFpw4lvrNZ085Qit0JduuEr4MUDDBt0HcQO
S5apPpRkNYU7ZFYgINcGbt9iUWLrTsVm6kQVAXqeIKM7uJ5LpS1ADwDOdWAK4leo
FqCReb9rcPA22raDLe8Q1PF8cADttBwX1mX9sAn6NdcBBvNemUSm8+RlL4W2g5EI
/LboJEP5seO32vQRua0MO70/G2SlzqidbVdTi/4x4BSC5EjXD/9vlfu/y2B2lHZf
HGQ5FJYFBsThjyoBxGU1aKE67vHZlei384B74J0dettcoDIKodmk7aE/kHHVdxhZ
ZAM7U3NUp8B4TyFQHpxRXtqVP26tqTnhsvHjQSwUIe/NVSVzn3buSVofXy9ViG0w
TjIIFYnMUqk7aUvZJa1lqdZ2zWuSmNOjQ1UcDNRj/fp5SU8K1qiOYCyHn230VGVT
f2UUNJn11y5/Ev2Hw3hzDwkAK+C7XhRIKE83U+tcpEs2xlPTN1glTPmKlcjj/8vr
rgiM6nc2PKF0iHbJdargKEAJZBfECs6yUJ6qqdPGLtYPecw8XVgt9ZgFvY1JveZH
TwxYPtuk+3WmL3Wu9Uqew2mmVFY6N0dYUE3A/RQWNTorRddAGhYVTeSOU+nSKUG3
vh939JLc6whDHMwR2WsvKjEoL8SiC02Jf+fS/QVDk4Gyb0aYxpe0BKijGWd/AvGZ
TaCG1w18TW69zeZKudUv1U4k2SB2Da+tx23g73GSW+gRZOLnKPtHb0T9+i2U8YKg
tc/FlkvjF1JRltNeTbk+cB0YT+UEHegvlX7umMKqUPKD54VrmafT28B1sTbIh1ir
9n2viPgGK+INdVp+7N6Gym0j4TdCnPg2X5/KX5MVBEGQpkRJCyJoSRh5QVbjwXf7
5gz29ym+3kgbwS6FwUp1P1BBxrBTTsLDsgQYAQgAJgIbLhYhBKNjpJkpHLvJQN1i
5B8QAnrwAviwBQJgthvRBQkHYtoXAkAJEB8QAnrwAviwwXQgBBkBCAAdFiEEpgI1
MPxTRh/skfmcBM0/L94HlXgFAl0VqLoACgkQBM0/L94HlXhRxBAArCkO/VTSigo4
e7XERFgCM9Uf9mOlkMQcQPeLMKNE8azUSlIEXRwqkPfoSNHq32pgeFq9/uv6gXZv
d6k4/MWfT/vRMiiBAaStb+19Fw5dtV6WI7bwSLOQHEGJz1K7P2aRm+cl02NbyOXC
YNu2j8JHqhAaZxSM9ibID0FZwy5NJbVP9aRrTmyFh+CZEZesWBRbhhLcXRftFwXm
jhby+XvA7NWy6/sEVwmGtG9aNFEvLfLqlsEPyoOH0n0/Oho5H1PTbTXti1I6CkWZ
OJolmwuWb3ApkvFN/6jd/gBRuVEUavOn0EklrxKj0KpnYPBPbTcuimFwQh1O+YZc
Pcz2rHXO78N1FCKgqZKITiM3SwK7frDFZJUypYZjYwpG6YLgSvxH+ytdiclR51FI
csZtN7CiiwC5+agZZMJV6ki4Aij2EmEhYVfbl+GXs0rXHleMHsdZqHFNBCWV824U
Ij4WiEBRV8iKbm7xacOJb6zWdPOUIrdCXbrhK+DFAwwbdB3EDkuWqT6UZDWFO2RW
ICDXBm7fYlFi607FZupEFQF6niCjO7ieS6UtQA8AznVgCuJXqBagkXm/a3DwNtq2
gy3vENTxfHAA7bQcF9Zl/bAJ+jXXAQbzXplEpvPkZS+FtoORCPy26CRD+bHjt9r0
EbmtDDu9Pxtkpc6onW1XU4v+MeAUguSKSg/8Ciu/o/I9G+6JV+ZZyvNtmCR95gLL
a05lvNQ2BrV7dh9+azF2mTDBsO8jPFxI6yqbZxccMTkfy9OIrtsurOoxsLPg442o
lyUfjYWNRyEKzo5YN6hrk+q6KFEFJUkmJPu3ApGYIbVFDDPs+iQVQKPw5WxpBssZ
EnaPNT4sEfcz8xUXDp2R1zNY1tirieOEGJXEroA/ssGF6cbCr4gYH7HrUO7ZLSpE
0ivr5njHZyjl//xCxbiJD+E2qBrBhwW3mJxFq3L3jo8R1Ijut7TY4w33QhlsfoGH
7mpxFaoHznsT+GuH2CRxdimOTGpv8dCl+0qhvZhpqvAoZqaQGuTfBjeP//J/RdbP
bNND+ROnv7zZReamM9JGrQXtuT51cEI7rwViv8Y43heazqRN/bM6LZQUIM3kWB57
IMUZCiDJOKd1BD71fsU4dTM0BiyczpYpr1O9cUjGgn6h5Khkwdi+4s1ij0oQo+Hc
XDSkeCIOg31DV0rmHUTRUeUHdPoXFEwWS1lAPJw4nwsZ5e/BuCF20Sw2lfTUyFxf
o+C1H7Ams0/QnUe9RbGeICEA3ElZeZ6hetFVggdMm1vXsWyo4+hP5YzmbW0eapRA
S/5FNbjs3Ie9hliikjitL6ip7F7/0x8PcRu2mRnjYrdTpsNnK8h3vzgsySaSI7/O
IG8Tn3MVI7yg2LjOwU0EaHpt/AEQAMAQRKtjJbseOA4djkpN3I26rT0Z7z3bpvCZ
KDTB1J09zuzBf9FLP/mZTt63Y10+cH8eDqK2Jx/Jn4TxQMAlMU+5YMkDOuzdj7sB
yBIkiinYOFG7tcQHu5jSWYxNo26rjJ+82omVMjwP0NmYHyYVpPGaN08UjV6Hwsq4
VxZf8pKHVcQtk4tAuBsO8drJ4R2kGX3AFxmZ5DMH7Q2oxBy0O4kG2DQsSl7kF7my
SwNwPw1Eppx2UCHtPa1r6DIL3vaUJQhrEW/z2HMS4I/HsqfrKc//hdEuWWIx3PcL
oFGqQHNfPiwLOiZqQTu3VLCwazrNfQNZpZugWwo+YK3kuN2UMp4CTybFW4o7lnyb
hXN88+Qj1tpdf30ItHDIs2P8i9eODT6Ssxn98nmhIyZSrxlgvaTDV/fJqDsVG46B
SdHS8h73yxlROGEEvE6g/ip7hSbFHiql8TrnQnRH2UzH+PJbmdTU16cKxR0VZ56w
V0OXhH/iSJdNV/jKAt/HiPz+Jn6I1C35eUIJtlcMIHGue4JAxmbrGJ++GZrgG7DP
UNz85VZo+TNzmDpG5gHV8TG6birttsqWfHyyu4ccYqdv5dOBBsrKB00r45alHMXJ
dZ7mf1M6OQDqY/pS5MYzZSj+iDAs43gsvWuQTeU1lYDbIN69t/LmgdShTrj52dTQ
nFTBAn81ABEBAAHCwXwEGAEKACYWIQSjY6SZKRy7yUDdYuQfEAJ68AL4sAUCaHpt
/AIbDAUJA8JnAAAKCRAfEAJ68AL4sLtxD/9EGdh2RiWB3WDeCy+6VE2fE1a1j2qG
b1I9MzaagGIjNfNLQa0ZRd4C8F2PxMq44g9pJT14Ti/TydW8UnavcO2eg5AP+mrO
P4bF8I+mtx1YtnyDPOBPtaxFXc1h1qF70KDyzQJl9C3ni/NrbvI8TTyh7JjFEqfy
g5PU+m2TBwoK+cQoAVb6NEA9bAzKsayqVg596E4A3VEn8LkiXshe96MGXwENCZbU
JhU1+C5M+q2XUi4BwfnbccgW3f67HyPEYt1dyYuQD18RM2I61yvUfCS9UMjZuBv3
QKERDap46x6fg7nfq7NZqBB4Ktb0pp//NJJdP8eP7zs+tbuLEDvLF3+RhiBUrR2d
Wx7qZLM1JRqHd85ttvB1xK7f/38TE7J2STpIpHlBgWroqWUYbTw3hiIfN9pNSike
M8hKjZ+w58HrXrx8gxN0tq60c9tAsxy7wpZmvufn06T9AaqPGnArfh3mAzk4G9jG
15JcGO5YKrE1M9y0pqyBgdku+zp87D8TEuWBa3GPHMVqkwz5Tm/ovpa6ms2KiuNK
9qVYb8JaUg5AxOnkxJSjnomRCVfTf6yccexdmE4EEkUNhFj/6Y+UA4WCxhAS4Gra
LDARUWnKPkw2YY4m7cWPDHzXF+pN3KHLej+u1O+0y1q9OmpQ0yogo1fnzmeIHvJY
iYmSNsSq9FUzTw==
=CCuY
-----END PGP PUBLIC KEY BLOCK-----